bottle-tonic-plus.svg

<svg fill="currentColor" viewBox="0 0 24 24"><path d="M13 4h-2l-1-2h4zm1 4V6h1V5H9v1h1v2c-2.76 0-5 2.24-5 5v9h14v-9c0-2.76-2.24-5-5-5m2 9h-3v3h-2v-3H8v-2h3v-3h2v3h3z"/></svg>

<svg  viewBox="0 0 24 24" fill="currentColor"><path  d="M13 4H11L10 2H14L13 4M14 8V6H15V5H9V6H10V8C7.24 8 5 10.24 5 13V22H19V13C19 10.24 16.76 8 14 8M16 17H13V20H11V17H8V15H11V12H13V15H16V17Z"/></svg>
